flaticon/music/saxophone.svg

<svg xmlns="http://www.w3.org/2000/svg" width="32" height="32" viewBox="0 0 24 24">
    <path d="M 23.578125 16.59375 C 23.609375 16.542969 23.640625 16.492188 23.664062 16.4375 C 23.675781 16.410156 23.683594 16.378906 23.691406 16.347656 C 23.710938 16.296875 23.734375 16.242188 23.746094 16.1875 C 23.753906 16.15625 23.757812 16.125 23.761719 16.09375 C 23.773438 16.035156 23.785156 15.972656 23.789062 15.90625 C 23.792969 15.882812 23.792969 15.855469 23.792969 15.828125 C 23.796875 15.753906 23.800781 15.679688 23.796875 15.601562 C 23.792969 15.582031 23.792969 15.5625 23.789062 15.542969 C 23.785156 15.453125 23.773438 15.363281 23.757812 15.265625 C 23.757812 15.257812 23.753906 15.25 23.753906 15.246094 C 23.609375 14.417969 23.109375 13.441406 22.304688 12.480469 C 22.292969 12.464844 22.28125 12.453125 22.269531 12.4375 C 22.1875 12.34375 22.105469 12.246094 22.019531 12.148438 C 21.914062 12.035156 21.808594 11.921875 21.695312 11.8125 C 19.777344 9.894531 17.605469 9.171875 16.648438 10.128906 C 16.589844 10.191406 16.535156 10.253906 16.488281 10.324219 C 16.464844 10.363281 16.445312 10.402344 16.421875 10.445312 C 16.402344 10.476562 16.382812 10.507812 16.367188 10.542969 C 16.34375 10.597656 16.328125 10.652344 16.3125 10.710938 C 16.300781 10.738281 16.292969 10.761719 16.285156 10.789062 C 16.269531 10.851562 16.261719 10.917969 16.25 10.984375 C 16.246094 11.007812 16.242188 11.03125 16.238281 11.058594 C 16.234375 11.125 16.230469 11.199219 16.230469 11.273438 C 16.230469 11.296875 16.230469 11.324219 16.230469 11.347656 C 16.234375 11.421875 16.242188 11.5 16.253906 11.578125 C 16.257812 11.609375 16.257812 11.636719 16.261719 11.664062 C 16.273438 11.742188 16.292969 11.824219 16.308594 11.90625 C 16.316406 11.9375 16.324219 11.964844 16.332031 11.996094 C 16.351562 12.082031 16.378906 12.167969 16.410156 12.257812 C 16.414062 12.277344 16.417969 12.292969 16.425781 12.3125 C 16.808594 13.4375 16.996094 14.445312 16.996094 15.398438 L 16.996094 16.402344 C 16.335938 16.402344 15.796875 16.941406 15.796875 17.601562 C 15.796875 18.234375 16.292969 18.75 16.914062 18.792969 C 16.753906 19.226562 16.371094 19.554688 15.917969 19.597656 C 15.570312 19.625 15.246094 19.519531 14.992188 19.289062 C 14.742188 19.0625 14.597656 18.738281 14.597656 18.402344 L 14.597656 18 C 14.703125 18 14.804688 17.960938 14.882812 17.882812 L 15.28125 17.484375 C 15.355469 17.410156 15.398438 17.308594 15.398438 17.203125 L 15.398438 16.402344 C 15.398438 16.296875 15.355469 16.195312 15.28125 16.121094 L 14.882812 15.71875 C 14.804688 15.644531 14.703125 15.601562 14.597656 15.601562 L 14.597656 15.203125 C 14.703125 15.203125 14.804688 15.160156 14.882812 15.085938 L 15.28125 14.6875 C 15.355469 14.609375 15.398438 14.507812 15.398438 14.402344 L 15.398438 13.601562 C 15.398438 13.496094 15.355469 13.394531 15.28125 13.320312 L 14.882812 12.921875 C 14.804688 12.84375 14.703125 12.804688 14.597656 12.804688 L 14.597656 12.402344 C 14.703125 12.402344 14.804688 12.363281 14.882812 12.285156 L 15.28125 11.886719 C 15.355469 11.8125 15.398438 11.710938 15.398438 11.605469 L 15.398438 10.804688 C 15.398438 10.699219 15.355469 10.597656 15.28125 10.519531 L 14.882812 10.121094 C 14.804688 10.046875 14.703125 10.003906 14.597656 10.003906 L 14.597656 9.605469 C 14.703125 9.605469 14.804688 9.5625 14.882812 9.488281 L 15.28125 9.085938 C 15.355469 9.011719 15.398438 8.910156 15.398438 8.804688 L 15.398438 8.003906 C 15.398438 7.898438 15.355469 7.796875 15.28125 7.722656 L 14.882812 7.320312 C 14.804688 7.246094 14.703125 7.203125 14.597656 7.203125 L 14.597656 6.804688 C 14.703125 6.804688 14.804688 6.761719 14.882812 6.6875 L 15.28125 6.289062 C 15.355469 6.214844 15.398438 6.113281 15.398438 6.003906 L 15.398438 5.207031 C 15.398438 5.097656 15.355469 4.996094 15.28125 4.921875 L 14.882812 4.523438 C 14.804688 4.449219 14.703125 4.40625 14.597656 4.40625 L 14.578125 4.40625 C 14.492188 3.257812 14.03125 2.175781 13.253906 1.316406 C 11.792969 -0.292969 9.320312 -0.445312 7.621094 0.96875 C 7.128906 1.378906 6.5 1.605469 5.855469 1.605469 L 5.800781 1.605469 C 5.800781 1.386719 5.621094 1.207031 5.402344 1.207031 L 4.199219 1.207031 C 3.980469 1.207031 3.800781 1.386719 3.800781 1.605469 L 2.601562 1.605469 C 2.554688 1.609375 2.507812 1.617188 2.464844 1.632812 C 2.453125 1.640625 2.441406 1.644531 2.429688 1.648438 C 2.417969 1.65625 2.40625 1.65625 2.394531 1.664062 L 0.398438 2.863281 C 0.277344 2.9375 0.203125 3.066406 0.203125 3.207031 L 0.203125 4.40625 C 0.203125 4.628906 0.382812 4.804688 0.601562 4.804688 L 3.800781 4.804688 C 3.800781 5.027344 3.980469 5.207031 4.199219 5.207031 L 5.402344 5.207031 C 5.621094 5.207031 5.800781 5.027344 5.800781 4.804688 L 5.988281 4.804688 C 6.734375 4.804688 7.449219 4.578125 8.054688 4.144531 L 9.199219 3.332031 C 9.609375 3.039062 10.152344 2.984375 10.621094 3.191406 C 11.054688 3.386719 11.335938 3.757812 11.386719 4.214844 C 11.394531 4.273438 11.398438 4.339844 11.398438 4.402344 L 11.398438 7.207031 L 11 7.207031 C 10.777344 7.207031 10.597656 7.382812 10.597656 7.605469 C 10.597656 7.828125 10.777344 8.003906 11 8.003906 L 11.398438 8.003906 L 11.398438 8.804688 L 11 8.804688 C 10.777344 8.804688 10.597656 8.984375 10.597656 9.207031 C 10.597656 9.425781 10.777344 9.605469 11 9.605469 L 11.398438 9.605469 L 11.398438 12.804688 L 11 12.804688 C 10.777344 12.804688 10.597656 12.984375 10.597656 13.203125 C 10.597656 13.425781 10.777344 13.605469 11 13.605469 L 11.398438 13.605469 L 11.398438 14.402344 L 11 14.402344 C 10.777344 14.402344 10.597656 14.582031 10.597656 14.804688 C 10.597656 15.023438 10.777344 15.203125 11 15.203125 L 11.398438 15.203125 L 11.398438 18.230469 C 11.398438 21.355469 13.859375 23.941406 16.886719 24 C 16.921875 24 16.957031 24 16.996094 24 C 18.507812 24 19.972656 23.382812 21.027344 22.289062 C 22.117188 21.15625 22.671875 19.667969 22.585938 18.089844 C 22.566406 17.691406 22.792969 17.296875 23.203125 17.007812 C 23.265625 16.964844 23.324219 16.914062 23.378906 16.859375 C 23.4375 16.800781 23.492188 16.734375 23.539062 16.664062 C 23.554688 16.640625 23.566406 16.617188 23.578125 16.59375 Z M 22.988281 15.890625 C 22.984375 15.910156 22.980469 15.929688 22.976562 15.949219 C 22.96875 15.984375 22.964844 16.019531 22.953125 16.050781 C 22.949219 16.070312 22.9375 16.085938 22.933594 16.101562 C 22.921875 16.128906 22.910156 16.160156 22.894531 16.183594 C 22.871094 16.226562 22.84375 16.261719 22.8125 16.292969 C 22.289062 16.820312 20.5 16.214844 18.898438 14.613281 C 18.113281 13.828125 17.515625 12.957031 17.21875 12.164062 C 17.203125 12.125 17.195312 12.089844 17.179688 12.054688 C 17.15625 11.980469 17.132812 11.910156 17.117188 11.839844 C 17.113281 11.824219 17.109375 11.8125 17.105469 11.800781 C 17.089844 11.742188 17.078125 11.6875 17.070312 11.636719 C 17.0625 11.605469 17.058594 11.578125 17.054688 11.550781 C 17.046875 11.515625 17.042969 11.476562 17.039062 11.441406 C 17.035156 11.402344 17.035156 11.363281 17.03125 11.324219 C 17.03125 11.300781 17.027344 11.277344 17.027344 11.257812 C 17.03125 11.210938 17.03125 11.167969 17.039062 11.125 C 17.039062 11.113281 17.039062 11.097656 17.039062 11.085938 C 17.046875 11.042969 17.058594 11 17.070312 10.960938 C 17.070312 10.949219 17.074219 10.941406 17.074219 10.933594 C 17.089844 10.894531 17.105469 10.859375 17.121094 10.824219 C 17.125 10.816406 17.128906 10.808594 17.132812 10.800781 C 17.15625 10.761719 17.183594 10.726562 17.214844 10.695312 C 17.246094 10.664062 17.28125 10.636719 17.324219 10.613281 C 17.339844 10.605469 17.355469 10.597656 17.371094 10.589844 C 17.398438 10.578125 17.425781 10.5625 17.457031 10.554688 C 17.480469 10.546875 17.503906 10.542969 17.523438 10.539062 C 17.554688 10.53125 17.585938 10.523438 17.617188 10.519531 C 17.644531 10.515625 17.667969 10.515625 17.695312 10.515625 C 17.726562 10.511719 17.761719 10.511719 17.792969 10.511719 C 17.882812 10.511719 17.976562 10.519531 18.074219 10.539062 C 18.097656 10.539062 18.121094 10.546875 18.144531 10.550781 C 18.234375 10.566406 18.324219 10.589844 18.421875 10.617188 C 18.441406 10.625 18.460938 10.628906 18.480469 10.636719 C 18.59375 10.671875 18.710938 10.714844 18.828125 10.765625 C 18.859375 10.777344 18.886719 10.789062 18.917969 10.804688 C 19.027344 10.851562 19.136719 10.90625 19.25 10.964844 C 19.269531 10.972656 19.285156 10.980469 19.304688 10.992188 C 19.433594 11.0625 19.5625 11.136719 19.695312 11.222656 C 19.726562 11.242188 19.761719 11.265625 19.792969 11.285156 C 19.917969 11.367188 20.046875 11.453125 20.171875 11.550781 C 20.183594 11.558594 20.195312 11.566406 20.207031 11.574219 C 20.34375 11.675781 20.480469 11.789062 20.617188 11.90625 C 20.648438 11.933594 20.683594 11.960938 20.714844 11.992188 C 20.855469 12.113281 20.992188 12.242188 21.128906 12.375 C 22.226562 13.472656 22.855469 14.65625 22.976562 15.464844 C 22.976562 15.46875 22.976562 15.472656 22.976562 15.476562 C 22.984375 15.53125 22.988281 15.582031 22.992188 15.632812 C 22.992188 15.65625 22.996094 15.675781 22.996094 15.699219 C 22.996094 15.730469 22.992188 15.761719 22.992188 15.792969 C 22.992188 15.824219 22.992188 15.859375 22.988281 15.890625 Z M 16.597656 17.601562 C 16.597656 17.382812 16.777344 17.203125 16.996094 17.203125 L 16.996094 18.003906 C 16.777344 18.003906 16.597656 17.824219 16.597656 17.601562 Z M 14.597656 17.035156 L 14.433594 17.203125 L 13.964844 17.203125 L 13.796875 17.035156 L 13.796875 16.566406 L 13.964844 16.402344 L 14.433594 16.402344 L 14.597656 16.566406 Z M 14.597656 14.238281 L 14.433594 14.402344 L 13.964844 14.402344 L 13.796875 14.238281 L 13.796875 13.769531 L 13.964844 13.605469 L 14.433594 13.605469 L 14.597656 13.769531 Z M 14.597656 11.4375 L 14.433594 11.605469 L 13.964844 11.605469 L 13.796875 11.4375 L 13.796875 10.96875 L 13.964844 10.804688 L 14.433594 10.804688 L 14.597656 10.96875 Z M 14.597656 8.640625 L 14.433594 8.804688 L 13.964844 8.804688 L 13.796875 8.640625 L 13.796875 8.171875 L 13.964844 8.003906 L 14.433594 8.003906 L 14.597656 8.171875 Z M 14.597656 5.839844 L 14.433594 6.003906 L 13.964844 6.003906 L 13.796875 5.839844 L 13.796875 5.371094 L 13.964844 5.207031 L 14.433594 5.207031 L 14.597656 5.371094 Z M 1.003906 3.433594 L 2.203125 2.714844 L 2.203125 4.007812 L 1.003906 4.007812 Z M 3 4.007812 L 3 2.40625 L 3.800781 2.40625 L 3.800781 4.007812 Z M 4.601562 4.40625 L 4.601562 2.007812 L 5 2.007812 L 5 4.40625 Z M 20.449219 21.734375 C 19.511719 22.707031 18.242188 23.234375 16.902344 23.199219 C 14.308594 23.148438 12.199219 20.921875 12.199219 18.230469 L 12.199219 15.203125 L 12.597656 15.203125 C 12.820312 15.203125 13 15.023438 13 14.804688 C 13 14.582031 12.820312 14.402344 12.597656 14.402344 L 12.199219 14.402344 L 12.199219 13.605469 L 12.597656 13.605469 C 12.820312 13.605469 13 13.425781 13 13.203125 C 13 12.984375 12.820312 12.804688 12.597656 12.804688 L 12.199219 12.804688 L 12.199219 9.605469 L 12.597656 9.605469 C 12.820312 9.605469 13 9.425781 13 9.203125 C 13 8.984375 12.820312 8.804688 12.597656 8.804688 L 12.199219 8.804688 L 12.199219 8.003906 L 12.597656 8.003906 C 12.820312 8.003906 13 7.828125 13 7.605469 C 13 7.382812 12.820312 7.207031 12.597656 7.207031 L 12.199219 7.207031 L 12.199219 4.402344 C 12.199219 4.308594 12.191406 4.214844 12.183594 4.125 C 12.097656 3.390625 11.636719 2.769531 10.945312 2.460938 C 10.652344 2.332031 10.339844 2.269531 10.027344 2.269531 C 9.570312 2.269531 9.117188 2.40625 8.734375 2.679688 L 7.589844 3.496094 C 7.121094 3.828125 6.566406 4.007812 5.988281 4.007812 L 5.800781 4.007812 L 5.800781 2.40625 L 5.855469 2.40625 C 6.6875 2.40625 7.496094 2.113281 8.132812 1.582031 C 9.5 0.441406 11.488281 0.5625 12.660156 1.855469 C 13.304688 2.5625 13.695312 3.457031 13.78125 4.40625 C 13.75 4.410156 13.71875 4.417969 13.691406 4.425781 C 13.675781 4.433594 13.65625 4.433594 13.640625 4.4375 C 13.59375 4.460938 13.550781 4.488281 13.515625 4.523438 L 13.117188 4.921875 C 13.039062 5 13 5.097656 13 5.207031 L 13 6.003906 C 13 6.113281 13.039062 6.214844 13.117188 6.289062 L 13.515625 6.6875 C 13.589844 6.761719 13.691406 6.804688 13.796875 6.804688 L 13.796875 7.203125 C 13.691406 7.203125 13.589844 7.246094 13.515625 7.320312 L 13.117188 7.722656 C 13.039062 7.796875 13 7.898438 13 8.003906 L 13 8.804688 C 13 8.910156 13.039062 9.011719 13.117188 9.085938 L 13.515625 9.488281 C 13.589844 9.5625 13.691406 9.605469 13.796875 9.605469 L 13.796875 10.003906 C 13.691406 10.003906 13.589844 10.046875 13.515625 10.121094 L 13.117188 10.519531 C 13.039062 10.597656 13 10.699219 13 10.804688 L 13 11.605469 C 13 11.710938 13.039062 11.8125 13.117188 11.886719 L 13.515625 12.285156 C 13.589844 12.363281 13.691406 12.402344 13.796875 12.402344 L 13.796875 12.804688 C 13.691406 12.804688 13.589844 12.84375 13.515625 12.921875 L 13.117188 13.320312 C 13.039062 13.394531 13 13.496094 13 13.601562 L 13 14.402344 C 13 14.507812 13.039062 14.609375 13.117188 14.6875 L 13.515625 15.085938 C 13.589844 15.160156 13.691406 15.203125 13.796875 15.203125 L 13.796875 15.601562 C 13.691406 15.601562 13.589844 15.644531 13.515625 15.71875 L 13.117188 16.121094 C 13.039062 16.195312 13 16.296875 13 16.402344 L 13 17.203125 C 13 17.308594 13.039062 17.410156 13.117188 17.484375 L 13.515625 17.882812 C 13.589844 17.960938 13.691406 18 13.796875 18 L 13.796875 18.402344 C 13.796875 18.964844 14.035156 19.503906 14.453125 19.882812 C 14.867188 20.257812 15.433594 20.445312 15.992188 20.390625 C 16.851562 20.308594 17.546875 19.644531 17.738281 18.800781 L 18.597656 18.800781 C 18.816406 18.800781 18.996094 18.621094 18.996094 18.402344 C 18.996094 18.179688 18.816406 18 18.597656 18 L 17.796875 18 L 17.796875 17.203125 L 18.597656 17.203125 C 18.816406 17.203125 18.996094 17.023438 18.996094 16.800781 C 18.996094 16.582031 18.816406 16.402344 18.597656 16.402344 L 17.796875 16.402344 L 17.796875 15.398438 C 17.796875 15.117188 17.78125 14.832031 17.75 14.542969 C 17.933594 14.757812 18.125 14.972656 18.332031 15.175781 C 19.570312 16.414062 20.910156 17.148438 21.964844 17.257812 C 21.835938 17.535156 21.773438 17.828125 21.789062 18.132812 C 21.863281 19.484375 21.386719 20.765625 20.449219 21.734375 Z M 20.449219 21.734375"/>
</svg>

<svg xmlns="http://www.w3.org/2000/svg" width="32" height="32" viewBox="0 0 24 24">
    <path d="M23.578 16.594c.031-.051.063-.102.086-.157a.604.604 0 0 0 .027-.09c.02-.05.043-.105.055-.16.008-.03.012-.062.016-.093.011-.059.023-.121.027-.188.004-.023.004-.05.004-.078.004-.074.008-.148.004-.226-.004-.02-.004-.04-.008-.059a2.411 2.411 0 0 0-.031-.277c0-.008-.004-.016-.004-.02-.145-.828-.645-1.805-1.45-2.766-.011-.015-.023-.027-.034-.043-.082-.093-.165-.19-.25-.289-.106-.113-.211-.226-.325-.335-1.918-1.918-4.09-2.641-5.047-1.684a1.52 1.52 0 0 0-.16.195c-.023.04-.043.078-.066.121-.02.032-.04.063-.055.098-.023.055-.039.11-.055.168a.62.62 0 0 0-.027.078c-.015.063-.023.129-.035.195a3.089 3.089 0 0 0-.012.075c-.004.066-.008.14-.008.214v.075c.004.074.012.152.024.23.004.031.004.059.008.086.011.078.031.16.047.242l.023.09c.02.086.047.172.078.262.004.02.008.035.016.055.383 1.124.57 2.132.57 3.085v1.004c-.66 0-1.2.54-1.2 1.2 0 .632.497 1.148 1.118 1.191-.16.434-.543.762-.996.805a1.209 1.209 0 0 1-1.32-1.196V18c.105 0 .207-.04.285-.117l.398-.399a.4.4 0 0 0 .117-.28v-.802a.4.4 0 0 0-.117-.28l-.398-.403a.416.416 0 0 0-.285-.117v-.399a.416.416 0 0 0 .285-.117l.398-.399a.416.416 0 0 0 .117-.285v-.8a.4.4 0 0 0-.117-.282l-.398-.398a.399.399 0 0 0-.285-.117v-.403c.105 0 .207-.039.285-.117l.398-.398a.4.4 0 0 0 .117-.282v-.8a.416.416 0 0 0-.117-.285l-.398-.399a.416.416 0 0 0-.285-.117v-.399a.416.416 0 0 0 .285-.117l.398-.402a.4.4 0 0 0 .117-.281v-.801a.4.4 0 0 0-.117-.281l-.398-.403a.416.416 0 0 0-.285-.117v-.398a.416.416 0 0 0 .285-.117l.398-.399a.402.402 0 0 0 .117-.285v-.797c0-.11-.043-.21-.117-.285l-.398-.399a.416.416 0 0 0-.285-.117h-.02a5.167 5.167 0 0 0-1.324-3.09C11.793-.293 9.32-.445 7.62.97a2.766 2.766 0 0 1-1.766.636h-.054a.4.4 0 0 0-.399-.398H4.2a.4.4 0 0 0-.398.398H2.6a.53.53 0 0 0-.136.028c-.012.008-.024.012-.035.015-.012.008-.024.008-.035.016l-1.997 1.2a.403.403 0 0 0-.195.343v1.2c0 .222.18.398.399.398H3.8c0 .222.18.402.398.402h1.203c.22 0 .399-.18.399-.402h.187c.746 0 1.461-.227 2.067-.66l1.144-.813c.41-.293.953-.348 1.422-.14.434.195.715.566.766 1.023.008.058.011.125.011.187v2.805H11a.398.398 0 1 0 0 .797h.398v.8H11a.401.401 0 0 0 0 .8l.398.001v3.2H11a.401.401 0 1 0 0 .8h.398v.797H11a.401.401 0 0 0 0 .8l.398.001v3.027c0 3.125 2.461 5.711 5.489 5.77h.11a5.615 5.615 0 0 0 4.03-1.71 5.555 5.555 0 0 0 1.559-4.2c-.02-.399.207-.793.617-1.082a1.263 1.263 0 0 0 .336-.344c.016-.023.027-.047.04-.07zm-.59-.703l-.011.058c-.008.035-.012.07-.024.102-.004.02-.015.035-.02.05-.011.028-.023.06-.038.083a.471.471 0 0 1-.082.109c-.524.527-2.313-.078-3.915-1.68-.785-.785-1.382-1.656-1.68-2.449-.015-.039-.023-.074-.038-.11-.024-.074-.047-.144-.063-.214l-.012-.04a1.562 1.562 0 0 1-.035-.163.808.808 0 0 1-.015-.086c-.008-.035-.012-.074-.016-.11-.004-.039-.004-.078-.008-.117 0-.023-.004-.047-.004-.066.004-.047.004-.09.012-.133v-.04c.008-.042.02-.085.031-.124 0-.012.004-.02.004-.027.016-.04.031-.075.047-.11l.012-.023a.545.545 0 0 1 .191-.188l.047-.023c.027-.012.055-.027.086-.035.023-.008.047-.012.066-.016.032-.008.063-.016.094-.02.028-.003.051-.003.078-.003.032-.004.067-.004.098-.004.09 0 .184.008.281.027.024 0 .047.008.07.012.09.015.18.039.278.066.02.008.039.012.058.02a3.449 3.449 0 0 1 .438.168 5.113 5.113 0 0 1 .387.187c.129.07.258.145.39.23l.098.063c.125.082.254.168.379.266l.035.023c.137.102.273.215.41.332.031.028.067.055.098.086.14.121.277.25.414.383 1.098 1.098 1.726 2.281 1.848 3.09v.012c.007.054.011.105.015.156 0 .023.004.043.004.066 0 .031-.004.063-.004.094s0 .066-.004.098zm-6.39 1.71a.4.4 0 0 1 .398-.398v.8a.401.401 0 0 1-.398-.401zm-2-.566l-.164.168h-.47l-.167-.168v-.469l.168-.164h.469l.164.164zm0-2.797l-.164.164h-.47l-.167-.164v-.468l.168-.165h.469l.164.165zm0-2.8l-.164.167h-.47l-.167-.168v-.468l.168-.164h.469l.164.164zm0-2.797l-.164.164h-.47l-.167-.164v-.47l.168-.167h.469l.164.168zm0-2.801l-.164.164h-.47l-.167-.164V5.37l.168-.164h.469l.164.164zM1.004 3.434l1.2-.72v1.294h-1.2zM3 4.008V2.406h.8v1.602zm1.602.398V2.008H5v2.398zm15.847 17.328a4.727 4.727 0 0 1-3.547 1.465c-2.593-.05-4.703-2.277-4.703-4.969v-3.027h.399a.401.401 0 1 0 0-.8h-.399v-.798h.399a.401.401 0 0 0 0-.8h-.399v-3.2h.399a.401.401 0 0 0 0-.8h-.399v-.801h.399a.398.398 0 1 0 0-.797h-.399V4.402c0-.093-.008-.187-.015-.277a2.077 2.077 0 0 0-1.239-1.664 2.276 2.276 0 0 0-.918-.191c-.457 0-.91.136-1.293.41l-1.144.816a2.761 2.761 0 0 1-1.602.512h-.187V2.406h.054a3.56 3.56 0 0 0 2.278-.824C9.5.442 11.488.562 12.66 1.855a4.365 4.365 0 0 1 1.121 2.551.607.607 0 0 0-.09.02c-.015.008-.035.008-.05.011a.474.474 0 0 0-.125.086l-.399.399a.392.392 0 0 0-.117.285v.797c0 .11.04.21.117.285l.399.399a.4.4 0 0 0 .28.117v.398a.4.4 0 0 0-.28.117l-.399.403a.384.384 0 0 0-.117.28v.802c0 .105.04.207.117.28l.399.403a.4.4 0 0 0 .28.117v.399a.4.4 0 0 0-.28.117l-.399.399a.399.399 0 0 0-.117.285v.8c0 .106.04.207.117.282l.399.398a.384.384 0 0 0 .28.117v.403a.384.384 0 0 0-.28.117l-.399.398a.384.384 0 0 0-.117.282v.8c0 .106.04.207.117.286l.399.398a.4.4 0 0 0 .28.117v.399a.4.4 0 0 0-.28.117l-.399.402a.384.384 0 0 0-.117.281v.801c0 .106.04.207.117.281l.399.399a.384.384 0 0 0 .28.117v.402a2 2 0 0 0 2.196 1.989c.86-.082 1.555-.746 1.746-1.59h.86a.4.4 0 0 0 0-.801h-.801v-.797h.8a.401.401 0 0 0 0-.8h-.8v-1.005c0-.28-.016-.566-.047-.855.184.215.375.43.582.633 1.238 1.238 2.578 1.972 3.633 2.082-.13.277-.192.57-.176.875a4.753 4.753 0 0 1-1.34 3.601zm0 0"/>
</svg>
